assets/logos/hubspot.svg

<svg width="80" height="80" viewBox="0 0 80 80" fill="none" xmlns="http://www.w3.org/2000/svg">
<path d="M66.342 38.4249C64.9448 36.0225 62.9795 34.0966 60.5224 32.6468C58.6863 31.5785 56.7823 30.9005 54.6368 30.6094V22.9761C56.7823 22.0657 58.1138 20.0506 58.1138 17.6997C58.1138 14.4954 55.5426 11.8988 52.3389 11.8988C49.1326 11.8988 46.5164 14.4954 46.5164 17.6997C46.5164 20.0506 47.7711 22.0657 49.9166 22.9761V30.6128C48.2002 30.8607 46.4202 31.3954 44.7948 32.2171C41.4748 29.6972 30.5884 21.4306 24.22 16.6023C24.371 16.0581 24.4873 15.4972 24.4873 14.9054C24.4873 11.3564 21.6114 8.47974 18.0589 8.47974C14.5063 8.47974 11.6317 11.3564 11.6317 14.9054C11.6317 18.454 14.5093 21.3315 18.0619 21.3315C19.2737 21.3315 20.3945 20.9773 21.3617 20.3949L22.7057 21.4138L41.1727 34.7112C40.1965 35.607 39.2872 36.6259 38.5599 37.7692C37.0859 40.0999 36.1852 42.6643 36.1852 45.4616V46.0453C36.1852 48.0089 36.5585 49.8628 37.1944 51.6043C37.7544 53.1249 38.5732 54.5075 39.5872 55.7575L33.4582 61.8976C32.57 61.5672 31.6053 61.4994 30.6796 61.7023C29.7538 61.9052 28.9061 62.3702 28.2377 63.0417C27.7749 63.5019 27.4082 64.0493 27.1586 64.6522C26.9091 65.2551 26.7817 65.9015 26.7839 66.5539C26.7843 67.8803 27.3014 69.1269 28.2403 70.0648C28.7005 70.5276 29.248 70.8946 29.8511 71.1444C30.4542 71.3942 31.1009 71.522 31.7538 71.5202C32.4069 71.5219 33.0538 71.3941 33.6571 71.1443C34.2604 70.8945 34.8081 70.5276 35.2686 70.0648C35.7311 69.6046 36.0978 69.0574 36.3474 68.4548C36.5971 67.8522 36.7249 67.2061 36.7233 66.5539C36.7233 66.0406 36.6439 65.5397 36.4946 65.0637L42.8295 58.7319C43.698 59.3315 44.636 59.8362 45.6444 60.2715C47.6333 61.1309 49.8286 61.6545 52.2312 61.6545H52.6715C55.3276 61.6545 57.8332 61.0309 60.1886 59.7556C62.6705 58.4077 64.6131 56.5646 66.0806 54.2116C67.5559 51.8521 68.3682 49.2453 68.3682 46.3772V46.234C68.3682 43.4127 67.7147 40.8096 66.342 38.4249ZM58.6017 51.7072C56.8823 53.6168 54.9058 54.7931 52.6715 54.7931H52.3033C51.0271 54.7931 49.7789 54.4406 48.5568 53.7995C47.1793 53.0936 46.1323 52.0867 45.2754 50.8118C44.3897 49.5604 43.9091 48.1942 43.9091 46.7456V46.3056C43.9091 44.8814 44.1825 43.531 44.8716 42.2557C45.6084 40.8615 46.6035 39.7774 47.9268 38.9155C49.2262 38.0595 50.6139 37.6397 52.1595 37.6397H52.3033C53.7048 37.6397 55.0316 37.9159 56.2837 38.5561C57.5594 39.2388 58.6017 40.1715 59.4097 41.3984C60.1946 42.6257 60.6614 43.9496 60.8116 45.3917C60.8352 45.6915 60.8472 45.9985 60.8472 46.2919C60.8472 48.2491 60.0989 50.0618 58.6017 51.7072Z" fill="#F8761F"/>
</svg>

<svg xmlns="http://www.w3.org/2000/svg" width="80" height="80" fill="none" viewBox="0 0 80 80"><path fill="#f8761f" d="M66.342 38.425c-1.397-2.402-3.362-4.328-5.82-5.778-1.836-1.069-3.74-1.746-5.885-2.038v-7.633c2.145-.91 3.477-2.925 3.477-5.276 0-3.205-2.571-5.801-5.775-5.801-3.206 0-5.823 2.596-5.823 5.8 0 2.352 1.255 4.367 3.4 5.277v7.637a16.8 16.8 0 0 0-5.121 1.604c-3.32-2.52-14.207-10.786-20.575-15.615.151-.544.267-1.105.267-1.697A6.425 6.425 0 0 0 18.06 8.48a6.424 6.424 0 0 0-6.427 6.425 6.43 6.43 0 0 0 6.43 6.426 6.37 6.37 0 0 0 3.3-.936l1.344 1.019L41.173 34.71c-.977.896-1.886 1.915-2.613 3.058-1.474 2.33-2.375 4.895-2.375 7.693v.583c0 1.964.373 3.818 1.01 5.56.56 1.52 1.378 2.903 2.392 4.153l-6.129 6.14a4.94 4.94 0 0 0-5.22 1.144 4.93 4.93 0 0 0-1.454 3.512c0 1.326.517 2.573 1.456 3.51a4.93 4.93 0 0 0 3.514 1.456 4.94 4.94 0 0 0 3.515-1.455 4.94 4.94 0 0 0 1.454-3.511c0-.513-.08-1.014-.228-1.49l6.335-6.332c.868.6 1.806 1.104 2.814 1.54 1.99.859 4.185 1.383 6.587 1.383h.44a15.54 15.54 0 0 0 7.518-1.9 15.56 15.56 0 0 0 5.892-5.543c1.475-2.36 2.287-4.967 2.287-7.835v-.143c0-2.821-.653-5.424-2.026-7.81m-7.74 13.282c-1.72 1.91-3.696 3.086-5.93 3.086h-.369c-1.276 0-2.524-.352-3.746-.993-1.378-.706-2.425-1.713-3.282-2.988-.885-1.252-1.366-2.618-1.366-4.066v-.44c0-1.425.273-2.775.963-4.05a8.8 8.8 0 0 1 3.055-3.34c1.3-.856 2.687-1.276 4.233-1.276h.143c1.402 0 2.729.276 3.98.916a8.4 8.4 0 0 1 3.127 2.842 9.04 9.04 0 0 1 1.402 3.994c.023.3.035.606.035.9 0 1.957-.748 3.77-2.245 5.415"/></svg>
